X: 0901
T: Miss Clementina Stewart's Reel   [G]
O: Malcolm MacDonald's 2nd Coll. 1790-1794
B: RSCDS 9-1
R: reel
Z: Anselm Lingnau <anselm@strathspey.org>
M: C|
L: 1/8
K: G
D |\
"G"G2Bd gdBG | BdBG "D7"FAFD | "G"G2Bd gdBG | "D7"BdAF "G"G2-G :|
d |\
"G"gdBG Bdgf | gb"A"eg "D7"agfd | "G"gdBd gd [d'd][c'c] | "D7"[bB][aA][gG][fF] "G"[g2-G2] gf |
y |\
"G"gdBd "C"cgec | "G"BdBG "D7"FAFD | "G"gdBd "C"cgec | "D7"BdAF G2-G |]
